public/assets/img/icons/where03.svg

<svg width="80" height="80" viewBox="0 0 80 80" fill="none" xmlns="http://www.w3.org/2000/svg">
<path d="M45.4769 37.9387C45.7128 38.4001 46.1822 38.6667 46.6675 38.6667C46.8702 38.6667 47.0781 38.62 47.2716 38.5214C47.3502 38.4814 55.1982 34.4947 59.0688 33.2721C59.7702 33.0494 60.1594 32.3 59.9368 31.5988C59.7154 30.8974 58.9715 30.5068 58.2635 30.7282C54.1862 32.0175 46.3916 35.9775 46.061 36.1455C45.4049 36.4787 45.1436 37.2816 45.4769 37.9387Z" fill="#333333"/>
<path d="M46.6675 22.6671C46.8701 22.6671 47.0781 22.6204 47.2715 22.5218C47.3501 22.4818 55.1982 18.4951 59.0688 17.2724C59.7702 17.0498 60.1594 16.3004 59.9368 15.5992C59.7154 14.8978 58.9714 14.5071 58.2635 14.7285C54.1862 16.0179 46.3915 19.9779 46.0609 20.1458C45.405 20.4791 45.1436 21.2818 45.4769 21.9391C45.7128 22.4004 46.1822 22.6671 46.6675 22.6671Z" fill="#333333"/>
<path d="M78.6661 20.0005C77.9288 20.0005 77.3328 20.5978 77.3328 21.3337V73.3333C77.3328 75.5386 75.5382 77.3333 73.3329 77.3333H41.3331V74.2654C43.2772 73.5854 48.341 72.0001 53.333 72.0001C64.9476 72.0001 72.8343 74.5721 72.9129 74.5986C73.3141 74.7319 73.7622 74.6654 74.1129 74.4146C74.4608 74.164 74.6661 73.7613 74.6661 73.3332V14.6672C74.6661 14.0419 74.2329 13.5005 73.6221 13.3658C73.6221 13.3658 72.5768 13.1326 70.7901 12.8044C70.0687 12.6712 69.3715 13.1512 69.2381 13.8738C69.1048 14.5991 69.5834 15.2938 70.3074 15.4271C70.9888 15.5524 71.5594 15.663 71.9994 15.7511V71.5613C68.9781 70.7693 62.2689 69.3334 53.3329 69.3334C47.5235 69.3334 41.817 71.2413 40.0516 71.888C38.4822 71.1948 33.7383 69.3334 27.9996 69.3334C18.8156 69.3334 11.2504 70.848 7.99978 71.6174V15.6991C10.6624 15.0444 18.5264 13.3338 27.9996 13.3338C32.861 13.3338 37.0302 14.8471 38.6663 15.5311V68.0001C38.6663 68.4801 38.9249 68.9241 39.3422 69.1601C39.7595 69.3974 40.2742 69.3907 40.6862 69.1427C40.8183 69.0641 54.0288 61.1734 65.754 57.2655C66.2993 57.0828 66.666 56.5749 66.666 56.0002V1.33391C66.666 0.896565 66.4514 0.487194 66.0914 0.237977C65.734 -0.0113962 65.2754 -0.0687394 64.8634 0.0846968C54.1955 4.08592 43.4011 10.8032 43.2929 10.8699C42.6689 11.2605 42.4783 12.0832 42.8689 12.7073C43.2583 13.3313 44.0809 13.5219 44.7062 13.1313C44.8048 13.0687 54.1955 7.22605 63.9993 3.28342V55.0457C54.898 58.2083 45.3954 63.3723 41.3328 65.6842V14.6672C41.3328 14.1619 41.0475 13.7005 40.5955 13.474C40.3661 13.3607 34.9022 10.6673 27.9996 10.6673C15.9518 10.6673 6.68917 13.274 6.29979 13.3858C5.72777 13.5485 5.33308 14.0726 5.33308 14.6672V73.3335C5.33308 73.7508 5.53043 74.1455 5.86245 74.3975C6.09714 74.5749 6.37979 74.6669 6.66651 74.6669C6.78917 74.6669 6.91182 74.6496 7.03182 74.6149C7.12385 74.5896 16.3438 72.0002 27.9996 72.0002C32.8743 72.0002 37.0396 73.5176 38.6663 74.1988V77.3335H6.66651C4.46122 77.3335 2.66654 75.5388 2.66654 73.3335V21.3339C2.66654 20.598 2.0692 20.0006 1.33327 20.0006C0.597339 20.0006 0 20.598 0 21.3339V73.3335C0 77.0094 2.9906 80.0002 6.66667 80.0002H73.3329C77.0088 80.0002 79.9995 77.0096 79.9995 73.3335V21.3339C79.9994 20.5978 79.4034 20.0005 78.6661 20.0005Z" fill="#333333"/>
<path d="M45.4769 29.939C45.7128 30.4004 46.1822 30.667 46.6675 30.667C46.8702 30.667 47.0781 30.6203 47.2716 30.5217C47.3502 30.4817 55.1982 26.495 59.0688 25.2723C59.7702 25.0497 60.1594 24.3003 59.9368 23.5991C59.7154 22.8977 58.9715 22.507 58.2635 22.7284C54.1862 24.0178 46.3916 27.9778 46.061 28.1458C45.4049 28.479 45.1436 29.2818 45.4769 29.939Z" fill="#333333"/>
<path d="M45.4769 45.9388C45.7128 46.4002 46.1822 46.6667 46.6675 46.6667C46.8702 46.6667 47.0781 46.62 47.2716 46.5214C47.3502 46.4814 55.1982 42.4947 59.0688 41.2721C59.7702 41.0494 60.1594 40.3001 59.9368 39.5988C59.7154 38.8974 58.9715 38.5068 58.2635 38.7282C54.1862 40.0176 46.3916 43.9775 46.061 44.1455C45.4049 44.4788 45.1436 45.2816 45.4769 45.9388Z" fill="#333333"/>
<path d="M32.3029 24.7444C24.0697 22.8124 14.7137 25.2738 14.3204 25.3791C13.6098 25.5697 13.1871 26.3003 13.3778 27.0124C13.5378 27.6083 14.0764 28.0003 14.6645 28.0003C14.7792 28.0003 14.8951 27.9856 15.0112 27.955C15.1006 27.9297 24.1085 25.5603 31.6951 27.3403C32.4084 27.5071 33.1298 27.063 33.2978 26.3457C33.4656 25.6297 33.0203 24.9124 32.3029 24.7444Z" fill="#333333"/>
<path d="M32.3029 32.7445C24.0697 30.8139 14.7137 33.2738 14.3204 33.3792C13.6098 33.5698 13.1871 34.3006 13.3778 35.0124C13.5378 35.6084 14.0764 36.0004 14.6645 36.0004C14.7792 36.0004 14.8951 35.9857 15.0112 35.9551C15.1006 35.9298 24.1085 33.5604 31.6951 35.3404C32.4084 35.5071 33.1298 35.063 33.2978 34.3457C33.4656 33.6298 33.0203 32.9124 32.3029 32.7445Z" fill="#333333"/>
<path d="M45.4769 53.9388C45.7128 54.4002 46.1822 54.6668 46.6675 54.6668C46.8702 54.6668 47.0781 54.6201 47.2716 54.5215C47.3502 54.4815 55.1982 50.4948 59.0688 49.2722C59.7702 49.0495 60.1594 48.3001 59.9368 47.5989C59.7154 46.8977 58.9715 46.5069 58.2635 46.7283C54.1862 48.0176 46.3916 51.9776 46.061 52.1456C45.4049 52.4789 45.1436 53.2817 45.4769 53.9388Z" fill="#333333"/>
<path d="M32.3029 40.7444C24.0697 38.8138 14.7137 41.2724 14.3204 41.3791C13.6098 41.5697 13.1871 42.3005 13.3778 43.0123C13.5378 43.6083 14.0764 44.0017 14.6645 44.0017C14.7792 44.0017 14.8951 43.9858 15.0112 43.955C15.1006 43.9297 24.1085 41.5603 31.6951 43.3403C32.4084 43.507 33.1298 43.063 33.2978 42.3456C33.4656 41.6297 33.0203 40.9124 32.3029 40.7444Z" fill="#333333"/>
<path d="M32.3029 56.7442C24.0697 54.8122 14.7137 57.2736 14.3204 57.3789C13.6098 57.5695 13.1871 58.3003 13.3778 59.0122C13.5378 59.6081 14.0764 60.0015 14.6645 60.0015C14.7792 60.0015 14.8951 59.9856 15.0112 59.9548C15.1006 59.9295 24.1085 57.5601 31.6951 59.3401C32.4084 59.5054 33.1298 59.0628 33.2978 58.3454C33.4656 57.6295 33.0203 56.9122 32.3029 56.7442Z" fill="#333333"/>
<path d="M32.3029 48.7444C24.0697 46.8124 14.7137 49.2724 14.3204 49.3791C13.6098 49.5697 13.1871 50.3005 13.3778 51.0123C13.5378 51.6083 14.0764 52.0017 14.6645 52.0017C14.7792 52.0017 14.8951 51.9858 15.0112 51.955C15.1006 51.9297 24.1085 49.5603 31.6951 51.3403C32.4084 51.507 33.1298 51.063 33.2978 50.3456C33.4656 49.6297 33.0203 48.9124 32.3029 48.7444Z" fill="#333333"/>
</svg>

<svg width="80" height="80" fill="none" xmlns="http://www.w3.org/2000/svg"><path d="M45.477 37.939a1.337 1.337 0 0 0 1.795.582c.078-.04 7.926-4.026 11.797-5.249a1.333 1.333 0 0 0-.806-2.544c-4.077 1.29-11.871 5.25-12.202 5.417a1.334 1.334 0 0 0-.584 1.794zM46.667 22.667c.203 0 .411-.047.605-.145.078-.04 7.926-4.027 11.797-5.25a1.333 1.333 0 0 0-.806-2.543c-4.077 1.289-11.871 5.249-12.202 5.417a1.334 1.334 0 0 0 .606 2.521z" fill="#333"/><path d="M78.666 20c-.737 0-1.333.598-1.333 1.334v52c0 2.205-1.795 4-4 4h-32v-3.069c1.944-.68 7.008-2.265 12-2.265 11.615 0 19.501 2.572 19.58 2.599a1.332 1.332 0 0 0 1.753-1.265V14.666c0-.625-.433-1.166-1.044-1.301 0 0-1.045-.233-2.832-.562a1.333 1.333 0 0 0-.483 2.623c.682.125 1.252.236 1.692.324v55.81c-3.02-.792-9.73-2.228-18.666-2.228-5.81 0-11.516 1.908-13.281 2.555-1.57-.693-6.314-2.555-12.052-2.555-9.184 0-16.75 1.515-20 2.284V15.7c2.662-.655 10.526-2.365 20-2.365 4.861 0 9.03 1.513 10.666 2.197v52.47a1.334 1.334 0 0 0 2.02 1.142c.132-.079 13.343-7.97 25.068-11.877.545-.183.912-.691.912-1.266V1.334a1.333 1.333 0 0 0-1.803-1.25c-10.667 4.002-21.462 10.72-21.57 10.786a1.334 1.334 0 0 0 1.413 2.261c.099-.062 9.49-5.905 19.293-9.848v51.763c-9.101 3.162-18.604 8.326-22.666 10.638V14.667c0-.505-.285-.966-.737-1.193-.23-.113-5.694-2.807-12.596-2.807-12.048 0-21.31 2.607-21.7 2.719a1.333 1.333 0 0 0-.967 1.281v58.666a1.332 1.332 0 0 0 1.699 1.281C7.124 74.59 16.344 72 28 72c4.874 0 9.04 1.518 10.666 2.199v3.135h-32c-2.205 0-4-1.795-4-4v-52a1.334 1.334 0 0 0-2.666 0v52A6.674 6.674 0 0 0 6.667 80h66.666a6.674 6.674 0 0 0 6.666-6.666v-52c0-.736-.596-1.334-1.333-1.334z" fill="#333"/><path d="M45.477 29.939a1.337 1.337 0 0 0 1.795.583c.078-.04 7.926-4.027 11.797-5.25a1.333 1.333 0 0 0-.806-2.544c-4.077 1.29-11.871 5.25-12.202 5.418a1.334 1.334 0 0 0-.584 1.793zM45.477 45.939a1.337 1.337 0 0 0 1.795.582c.078-.04 7.926-4.026 11.797-5.249a1.333 1.333 0 0 0-.806-2.544c-4.077 1.29-11.871 5.25-12.202 5.417a1.334 1.334 0 0 0-.584 1.794zM32.303 24.744c-8.233-1.932-17.59.53-17.983.635a1.334 1.334 0 0 0 .691 2.576c.09-.025 9.098-2.395 16.684-.615a1.333 1.333 0 1 0 .608-2.596zM32.303 32.745c-8.233-1.931-17.59.529-17.983.634a1.334 1.334 0 0 0 .691 2.576c.09-.025 9.098-2.395 16.684-.615a1.333 1.333 0 1 0 .608-2.596zM45.477 53.939a1.337 1.337 0 0 0 1.795.583c.078-.04 7.926-4.027 11.797-5.25a1.333 1.333 0 0 0-.806-2.544c-4.077 1.29-11.871 5.25-12.202 5.418a1.334 1.334 0 0 0-.584 1.793zM32.303 40.744c-8.233-1.93-17.59.528-17.983.635a1.334 1.334 0 0 0 .691 2.576c.09-.025 9.098-2.395 16.684-.615a1.333 1.333 0 1 0 .608-2.596zM32.303 56.744c-8.233-1.932-17.59.53-17.983.635a1.334 1.334 0 0 0 .691 2.576c.09-.026 9.098-2.395 16.684-.615a1.333 1.333 0 1 0 .608-2.596zM32.303 48.744c-8.233-1.932-17.59.528-17.983.635a1.334 1.334 0 0 0 .691 2.576c.09-.025 9.098-2.395 16.684-.615a1.333 1.333 0 1 0 .608-2.596z" fill="#333"/></svg>
